X: 1
T: North West Street
M: 4/4
L: 1/8
R: hornpipe
K: Gmaj
G2 GA BdcB | ABAG FE D2 | GFGA  (3Bcd cB | ABAG F2 D2 |
GFGA (3Bcd cB | ABAG FE D2 | DEDE Fedc |1 BGAF G2 (3DEF :|2 BGAF G2 (3def ||
g2 g2 e2 ge | dedc BA G2 | d^cde fgfe | ded^c d2 (3def | 
g2 g2 e2 ge | dedc BA G2 | d^cde fgef |1 dcAF G2 (3def :|2 dcAF G4 ||
